images_elementary_svg/cmd/sc_datafilterautofilter.svg

<svg height="16" width="16" xmlns="http://www.w3.org/2000/svg" xmlns:xlink="http://www.w3.org/1999/xlink"><linearGradient id="a" gradientUnits="userSpaceOnUse" x1="2.903" x2="12.828" y1="8.504" y2="8.504"><stop offset="0" stop-color="#e3e3e4"/><stop offset=".5" stop-color="#fcfcfc"/><stop offset="1" stop-color="#e3e3e4"/></linearGradient><linearGradient id="b" gradientUnits="userSpaceOnUse" x1=".918" x2="14.813" y1="5.675" y2="3.789"><stop offset="0" stop-opacity=".34"/><stop offset="1" stop-opacity=".247"/></linearGradient><linearGradient id="c" gradientTransform="matrix(.26726 0 0 1.15755 9.316 -10.704)" gradientUnits="userSpaceOnUse" x1="-32.957" x2="-25.474" y1="27.389" y2="27.389"><stop offset="0" stop-color="#2e3436"/><stop offset=".644" stop-color="#888a85"/><stop offset="1" stop-color="#555753"/></linearGradient><linearGradient id="d" gradientTransform="matrix(.77602 .23906 -.31605 .56748 -20.168 4.55)" gradientUnits="userSpaceOnUse" x1="27.528" x2="30.42" y1="4.167" y2="2.949"><stop offset="0" stop-color="#eeeeec"/><stop offset=".789" stop-color="#fff"/><stop offset="1" stop-color="#eeeeec"/></linearGradient><g stroke-width=".967" transform="matrix(1.0076 0 0 1.06043 .075 -1.018)"><path d="m.44 1.44 14.88.006-.004 2.626-6.145 5.31v6.18h-2.621v-6.182l-6.11-5.308z" fill="url(#a)" fill-rule="evenodd" stroke="url(#b)" stroke-linejoin="round"/><path d="m1.312 2.32 13.006.05v1.32l-6.02 5.25v5.736h-.874v-5.736l-6.112-5.295z" fill="none" stroke="#fdfdfb"/></g><g transform="matrix(.77076 -.445 .37655 .6522 1.94 -4.56)"><path d="m.5 18v12.438c0 .58.297 1.062.667 1.062h.666c.37 0 .667-.48.667-1.063v-12.437z" fill="url(#c)" fill-rule="evenodd"/><rect fill="none" height="21" opacity=".3" rx=".749" ry=".929" stroke="#000" stroke-width="1.221" width="2" x=".5" y="10.5"/><path d="m1.167 10.5c-.37 0-.667.48-.667 1.063v6.437h2v-6.438c0-.58-.297-1.062-.667-1.062z" fill="url(#d)" fill-rule="evenodd"/></g></svg>

<svg xmlns="http://www.w3.org/2000/svg" xmlns:xlink="http://www.w3.org/1999/xlink" height="16" width="16"><defs><linearGradient id="b"><stop offset="0" stop-color="#e3e3e4"/><stop offset=".5" stop-color="#fcfcfc"/><stop offset="1" stop-color="#e3e3e4"/></linearGradient><linearGradient id="a"><stop offset="0" stop-color="#c2c3c4"/><stop offset=".095" stop-color="#c4c5c8"/><stop offset="1" stop-color="#fcfcfc"/></linearGradient><linearGradient id="c"><stop offset="0" stop-opacity=".34"/><stop offset="1" stop-opacity=".247"/></linearGradient><linearGradient xlink:href="#b" id="f" x1="2.903" y1="8.504" x2="12.828" y2="8.504" gradientUnits="userSpaceOnUse"/><linearGradient xlink:href="#c" id="g" x1=".918" y1="5.675" x2="14.813" y2="3.789" gradientUnits="userSpaceOnUse"/><linearGradient xlink:href="#d" id="h" gradientUnits="userSpaceOnUse" gradientTransform="matrix(.26726 0 0 1.15755 9.316 -10.704)" x1="-32.957" y1="27.389" x2="-25.474" y2="27.389"/><linearGradient id="d"><stop offset="0" stop-color="#2e3436"/><stop offset=".644" stop-color="#888a85"/><stop offset="1" stop-color="#555753"/></linearGradient><linearGradient xlink:href="#e" id="i" gradientUnits="userSpaceOnUse" gradientTransform="matrix(.77602 .23906 -.31605 .56748 -20.168 4.55)" x1="27.528" y1="4.167" x2="30.42" y2="2.949"/><linearGradient id="e"><stop offset="0" stop-color="#eeeeec"/><stop offset=".789" stop-color="#fff"/><stop offset="1" stop-color="#eeeeec"/></linearGradient></defs><g stroke-width=".967"><path d="M.44 1.44l14.88.006-.004 2.626-6.145 5.31v6.18H6.55V9.38L.44 4.072z" fill="url(#f)" fill-rule="evenodd" stroke="url(#g)" stroke-linejoin="round" transform="matrix(1.0076 0 0 1.06043 .075 -1.018)"/><path d="M1.312 2.32l13.006.05V3.69L8.298 8.94v5.736h-.874V8.94L1.312 3.645z" fill="none" stroke="#fdfdfb" transform="matrix(1.0076 0 0 1.06043 .075 -1.018)"/></g><g transform="matrix(.77076 -.445 .37655 .6522 1.94 -4.56)" color="#000"><path d="M.5 18v12.438c0 .58.297 1.062.667 1.062h.666c.37 0 .667-.48.667-1.063V18z" overflow="visible" fill="url(#h)" fill-rule="evenodd"/><rect ry=".929" rx=".749" y="10.5" x=".5" height="21" width="2" overflow="visible" opacity=".3" fill="none" stroke="#000" stroke-width="1.221"/><path d="M1.167 10.5c-.37 0-.667.48-.667 1.063V18h2v-6.438c0-.58-.297-1.062-.667-1.062z" overflow="visible" fill="url(#i)" fill-rule="evenodd"/></g></svg>
